Numix-Light/16/status/indicator-keyboard-Be-2.svg

<?xml version="1.0" encoding="UTF-8" standalone="no"?>
<svg
   xmlns:dc="http://purl.org/dc/elements/1.1/"
   xmlns:cc="http://creativecommons.org/ns#"
   xmlns:rdf="http://www.w3.org/1999/02/22-rdf-syntax-ns#"
   xmlns:svg="http://www.w3.org/2000/svg"
   xmlns="http://www.w3.org/2000/svg"
   xmlns:sodipodi="http://sodipodi.sourceforge.net/DTD/sodipodi-0.dtd"
   xmlns:inkscape="http://www.inkscape.org/namespaces/inkscape"
   viewBox="0 0 16 16"
   id="svg2"
   version="1.1"
   inkscape:version="0.91 r13725"
   sodipodi:docname="indicator-keyboard-Be-2.svg">
  <metadata
     id="metadata14">
    <rdf:RDF>
      <cc:Work
         rdf:about="">
        <dc:format>image/svg+xml</dc:format>
        <dc:type
           rdf:resource="http://purl.org/dc/dcmitype/StillImage" />
      </cc:Work>
    </rdf:RDF>
  </metadata>
  <defs
     id="defs12" />
  <sodipodi:namedview
     pagecolor="#ffffff"
     bordercolor="#666666"
     borderopacity="1"
     objecttolerance="10"
     gridtolerance="10"
     guidetolerance="10"
     inkscape:pageopacity="0"
     inkscape:pageshadow="2"
     inkscape:window-width="459"
     inkscape:window-height="369"
     id="namedview10"
     showgrid="false"
     inkscape:zoom="14.75"
     inkscape:cx="8"
     inkscape:cy="8"
     inkscape:window-x="65"
     inkscape:window-y="24"
     inkscape:window-maximized="0"
     inkscape:current-layer="svg2" />
  <path
     style="fill:#353535;fill-opacity:1"
     d="M 1.5996094 0 C 0.71320937 2.9605947e-16 0 0.71320937 0 1.5996094 L 0 14.400391 C 2.9605947e-16 15.286791 0.71320937 16 1.5996094 16 L 14.400391 16 C 15.286791 16 16 15.286791 16 14.400391 L 16 1.5996094 C 16 0.71320937 15.286791 0 14.400391 0 L 1.5996094 0 z M 3.25 4.8046875 C 3.586 4.8046875 3.903125 4.8327187 4.203125 4.8867188 C 4.509125 4.9407187 4.7759063 5.03025 5.0039062 5.15625 C 5.2319063 5.28225 5.4129219 5.4501562 5.5449219 5.6601562 C 5.6829219 5.8641563 5.7519531 6.1197812 5.7519531 6.4257812 C 5.7519531 6.7617812 5.6642344 7.0490625 5.4902344 7.2890625 C 5.3222344 7.5230625 5.0946406 7.6853906 4.8066406 7.7753906 C 4.9866406 7.8173906 5.1507813 7.8770781 5.3007812 7.9550781 C 5.4507813 8.0330781 5.5832656 8.1357187 5.6972656 8.2617188 C 5.8112656 8.3817188 5.8989844 8.5309375 5.9589844 8.7109375 C 6.0249844 8.8849375 6.0566406 9.0957969 6.0566406 9.3417969 C 6.0566406 9.9297971 5.8234687 10.379406 5.3554688 10.691406 C 4.8874687 10.997406 4.1635469 11.150391 3.1855469 11.150391 C 3.0835469 11.150391 2.9641719 11.144813 2.8261719 11.132812 C 2.6941719 11.126813 2.5561094 11.113703 2.4121094 11.095703 C 2.2741094 11.083703 2.141625 11.068781 2.015625 11.050781 C 1.889625 11.026781 1.7833594 11.002516 1.6933594 10.978516 L 1.6933594 4.9765625 C 1.8013594 4.9465625 1.9207344 4.9222969 2.0527344 4.9042969 C 2.1847344 4.8802969 2.3190312 4.8616094 2.4570312 4.8496094 C 2.6010313 4.8316094 2.7390938 4.8204531 2.8710938 4.8144531 C 3.0090937 4.8084531 3.136 4.8046875 3.25 4.8046875 z M 3.25 5.3261719 C 3.028 5.3261719 2.8376406 5.3337031 2.6816406 5.3457031 C 2.5316406 5.3577031 2.4066875 5.372625 2.3046875 5.390625 L 2.3046875 7.5859375 L 3.4921875 7.5859375 C 3.7141875 7.5859375 3.9250469 7.5710156 4.1230469 7.5410156 C 4.3210469 7.5050156 4.4907656 7.4453281 4.6347656 7.3613281 C 4.7847656 7.2713281 4.9023281 7.1537656 4.9863281 7.0097656 C 5.0703281 6.8597656 5.1132813 6.6713594 5.1132812 6.4433594 C 5.1132812 6.2393594 5.0665625 6.0676875 4.9765625 5.9296875 C 4.8865625 5.7856875 4.7578438 5.668125 4.5898438 5.578125 C 4.4278438 5.488125 4.2338594 5.426625 4.0058594 5.390625 C 3.7778594 5.348625 3.526 5.3261719 3.25 5.3261719 z M 9.0898438 6.3359375 C 9.6598438 6.3359375 10.111265 6.5205781 10.447266 6.8925781 C 10.789266 7.2645781 10.960937 7.8373281 10.960938 8.6113281 C 10.960938 8.6593281 10.957172 8.7078594 10.951172 8.7558594 C 10.951172 8.8038594 10.949359 8.848625 10.943359 8.890625 L 7.6757812 8.890625 C 7.6937812 9.460625 7.8356094 9.8990779 8.0996094 10.205078 C 8.3636094 10.511078 8.783375 10.664062 9.359375 10.664062 C 9.677375 10.664062 9.9292342 10.634219 10.115234 10.574219 C 10.301234 10.514219 10.435531 10.463875 10.519531 10.421875 L 10.628906 10.925781 C 10.544906 10.973781 10.384391 11.029703 10.150391 11.095703 C 9.9223904 11.161703 9.6537969 11.195312 9.3417969 11.195312 C 8.9337969 11.195312 8.584875 11.135625 8.296875 11.015625 C 8.008875 10.895625 7.7719375 10.727719 7.5859375 10.511719 C 7.3999375 10.295719 7.2656406 10.040094 7.1816406 9.7460938 C 7.0976406 9.4460938 7.0546875 9.119625 7.0546875 8.765625 C 7.0546875 8.357625 7.1125625 8.003125 7.2265625 7.703125 C 7.3465625 7.397125 7.4995469 7.1415 7.6855469 6.9375 C 7.8775469 6.7335 8.0939844 6.5842813 8.3339844 6.4882812 C 8.5799844 6.3862812 8.8318437 6.3359375 9.0898438 6.3359375 z M 9.0976562 6.8574219 C 8.8876563 6.8574219 8.69925 6.8984219 8.53125 6.9824219 C 8.36925 7.0664219 8.2256094 7.1802188 8.0996094 7.3242188 C 7.9796094 7.4622188 7.8825469 7.6245469 7.8105469 7.8105469 C 7.7445469 7.9965469 7.7053594 8.1924844 7.6933594 8.3964844 L 10.357422 8.3964844 C 10.345422 7.9104844 10.231625 7.5317188 10.015625 7.2617188 C 9.7996248 6.9917187 9.4936563 6.8574219 9.0976562 6.8574219 z M 2.3046875 8.1074219 L 2.3046875 10.564453 C 2.3946875 10.576453 2.5289844 10.591375 2.7089844 10.609375 C 2.8889844 10.621375 3.0718125 10.628906 3.2578125 10.628906 C 3.5338125 10.628906 3.8005937 10.610219 4.0585938 10.574219 C 4.3225938 10.538219 4.5539531 10.472953 4.7519531 10.376953 C 4.9499531 10.280953 5.1085156 10.148469 5.2285156 9.9804688 C 5.3485156 9.8124687 5.4101563 9.5960312 5.4101562 9.3320312 C 5.4101562 9.0920313 5.3672031 8.8942813 5.2832031 8.7382812 C 5.1992031 8.5762813 5.0798281 8.449375 4.9238281 8.359375 C 4.7678281 8.263375 4.5756562 8.1981094 4.3476562 8.1621094 C 4.1256563 8.1261094 3.8756094 8.1074219 3.5996094 8.1074219 L 2.3046875 8.1074219 z M 12.980469 8.7539062 C 13.374369 8.7539062 13.670241 8.851875 13.869141 9.046875 C 14.068041 9.237975 14.167969 9.5044563 14.167969 9.8476562 C 14.167969 9.9997563 14.140538 10.14475 14.085938 10.28125 C 14.031337 10.41385 13.956881 10.543169 13.863281 10.667969 C 13.773581 10.792769 13.669734 10.912297 13.552734 11.029297 C 13.435734 11.146297 13.316212 11.263859 13.195312 11.380859 C 13.093913 11.478359 12.995937 11.578288 12.898438 11.679688 C 12.804838 11.777187 12.718625 11.877116 12.640625 11.978516 C 12.566525 12.076016 12.505784 12.172031 12.458984 12.269531 C 12.416084 12.363131 12.394531 12.457181 12.394531 12.550781 L 12.394531 12.5625 L 14.306641 12.5625 L 14.306641 12.896484 L 11.972656 12.896484 C 11.972656 12.888684 11.97073 12.874969 11.966797 12.855469 L 11.966797 12.755859 C 11.966797 12.572559 12.000106 12.402094 12.066406 12.246094 C 12.132706 12.086194 12.216959 11.937275 12.318359 11.796875 C 12.423659 11.656475 12.539263 11.525197 12.664062 11.404297 C 12.792762 11.283397 12.916203 11.165834 13.033203 11.052734 C 13.130703 10.959134 13.220841 10.869003 13.306641 10.783203 C 13.396341 10.693503 13.474716 10.603366 13.541016 10.509766 C 13.607316 10.416166 13.660219 10.316237 13.699219 10.210938 C 13.738219 10.105638 13.757812 9.9900344 13.757812 9.8652344 C 13.757812 9.5922344 13.683356 9.39825 13.535156 9.28125 C 13.390856 9.16035 13.208628 9.0996094 12.986328 9.0996094 C 12.861528 9.0996094 12.749844 9.1152844 12.652344 9.1464844 C 12.554844 9.1776844 12.468631 9.2149125 12.394531 9.2578125 C 12.324331 9.2968125 12.263591 9.3379594 12.212891 9.3808594 C 12.162191 9.4237594 12.124962 9.4570688 12.101562 9.4804688 L 11.902344 9.2167969 C 11.925744 9.1894969 11.966891 9.1503094 12.025391 9.0996094 C 12.087791 9.0450094 12.164206 8.9921062 12.253906 8.9414062 C 12.347506 8.8907063 12.455272 8.8476 12.576172 8.8125 C 12.697072 8.7735 12.832269 8.7539063 12.980469 8.7539062 z "
     id="path4" />
</svg>

<svg xmlns="http://www.w3.org/2000/svg" viewBox="0 0 16 16">
 <path d="m 1.6 0 c -0.886 0 -1.6 0.713 -1.6 1.6 l 0 12.801 c 0 0.886 0.713 1.6 1.6 1.6 l 12.801 0 c 0.886 0 1.6 -0.713 1.6 -1.6 l 0 -12.801 c 0 -0.886 -0.713 -1.6 -1.6 -1.6 l -12.801 0 z m 1.65 4.805 c 0.336 0 0.653 0.028 0.953 0.082 c 0.306 0.054 0.573 0.144 0.801 0.27 c 0.228 0.126 0.409 0.294 0.541 0.504 c 0.138 0.204 0.207 0.46 0.207 0.766 c 0 0.336 -0.088 0.623 -0.262 0.863 c -0.168 0.234 -0.396 0.396 -0.684 0.486 c 0.18 0.042 0.344 0.102 0.494 0.18 c 0.15 0.078 0.282 0.181 0.396 0.307 c 0.114 0.12 0.202 0.269 0.262 0.449 c 0.066 0.174 0.098 0.385 0.098 0.631 c 0 0.588 -0.233 1.038 -0.701 1.35 c -0.468 0.306 -1.192 0.459 -2.17 0.459 c -0.102 0 -0.221 -0.006 -0.359 -0.018 c -0.132 -0.006 -0.27 -0.019 -0.414 -0.037 c -0.138 -0.012 -0.27 -0.027 -0.396 -0.045 c -0.126 -0.024 -0.232 -0.048 -0.322 -0.072 l 0 -6 c 0.108 -0.03 0.227 -0.054 0.359 -0.072 c 0.132 -0.024 0.266 -0.043 0.404 -0.055 c 0.144 -0.018 0.282 -0.029 0.414 -0.035 c 0.138 -0.006 0.265 -0.01 0.379 -0.01 z m 0 0.521 c -0.222 0 -0.412 0.008 -0.568 0.02 c -0.15 0.012 -0.275 0.027 -0.377 0.045 l 0 2.195 l 1.188 0 c 0.222 0 0.433 -0.015 0.631 -0.045 c 0.198 -0.036 0.368 -0.096 0.512 -0.18 c 0.15 -0.09 0.268 -0.208 0.352 -0.352 c 0.084 -0.15 0.127 -0.338 0.127 -0.566 c 0 -0.204 -0.047 -0.376 -0.137 -0.514 c -0.09 -0.144 -0.219 -0.262 -0.387 -0.352 c -0.162 -0.09 -0.356 -0.152 -0.584 -0.188 c -0.228 -0.042 -0.48 -0.064 -0.756 -0.064 z m 5.84 1.01 c 0.57 0 1.021 0.185 1.357 0.557 c 0.342 0.372 0.514 0.945 0.514 1.719 c 0 0.048 -0.004 0.097 -0.01 0.145 c 0 0.048 -0.002 0.093 -0.008 0.135 l -3.268 0 c 0.018 0.57 0.16 1.01 0.424 1.314 c 0.264 0.306 0.684 0.459 1.26 0.459 c 0.318 0 0.57 -0.03 0.756 -0.09 c 0.186 -0.06 0.32 -0.11 0.404 -0.152 l 0.109 0.504 c -0.084 0.048 -0.245 0.104 -0.479 0.17 c -0.228 0.066 -0.497 0.1 -0.809 0.1 c -0.408 0 -0.757 -0.06 -1.045 -0.18 c -0.288 -0.12 -0.525 -0.288 -0.711 -0.504 c -0.186 -0.216 -0.32 -0.472 -0.404 -0.766 c -0.084 -0.3 -0.127 -0.626 -0.127 -0.98 c 0 -0.408 0.058 -0.762 0.172 -1.063 c 0.12 -0.306 0.273 -0.562 0.459 -0.766 c 0.192 -0.204 0.408 -0.353 0.648 -0.449 c 0.246 -0.102 0.498 -0.152 0.756 -0.152 z m 0.008 0.521 c -0.21 0 -0.398 0.041 -0.566 0.125 c -0.162 0.084 -0.306 0.198 -0.432 0.342 c -0.12 0.138 -0.217 0.3 -0.289 0.486 c -0.066 0.186 -0.105 0.382 -0.117 0.586 l 2.664 0 c -0.012 -0.486 -0.126 -0.865 -0.342 -1.135 c -0.216 -0.27 -0.522 -0.404 -0.918 -0.404 z m -6.793 1.25 l 0 2.457 c 0.09 0.012 0.224 0.027 0.404 0.045 c 0.18 0.012 0.363 0.02 0.549 0.02 c 0.276 0 0.543 -0.019 0.801 -0.055 c 0.264 -0.036 0.495 -0.101 0.693 -0.197 c 0.198 -0.096 0.357 -0.228 0.477 -0.396 c 0.12 -0.168 0.182 -0.384 0.182 -0.648 c 0 -0.24 -0.043 -0.438 -0.127 -0.594 c -0.084 -0.162 -0.203 -0.289 -0.359 -0.379 c -0.156 -0.096 -0.348 -0.161 -0.576 -0.197 c -0.222 -0.036 -0.472 -0.055 -0.748 -0.055 l -1.295 0 z m 10.676 0.646 c 0.394 0 0.69 0.098 0.889 0.293 c 0.199 0.191 0.299 0.458 0.299 0.801 c 0 0.152 -0.027 0.297 -0.082 0.434 c -0.055 0.133 -0.129 0.262 -0.223 0.387 c -0.09 0.125 -0.194 0.244 -0.311 0.361 c -0.117 0.117 -0.237 0.235 -0.357 0.352 c -0.101 0.098 -0.199 0.197 -0.297 0.299 c -0.094 0.097 -0.18 0.197 -0.258 0.299 c -0.074 0.097 -0.135 0.194 -0.182 0.291 c -0.043 0.094 -0.064 0.188 -0.064 0.281 l 0 0.012 l 1.912 0 l 0 0.334 l -2.334 0 c 0 -0.008 -0.002 -0.022 -0.006 -0.041 l 0 -0.1 c 0 -0.183 0.033 -0.354 0.1 -0.51 c 0.066 -0.16 0.151 -0.309 0.252 -0.449 c 0.105 -0.14 0.221 -0.272 0.346 -0.393 c 0.129 -0.121 0.252 -0.238 0.369 -0.352 c 0.098 -0.094 0.188 -0.184 0.273 -0.27 c 0.09 -0.09 0.168 -0.18 0.234 -0.273 c 0.066 -0.094 0.119 -0.194 0.158 -0.299 c 0.039 -0.105 0.059 -0.221 0.059 -0.346 c 0 -0.273 -0.074 -0.467 -0.223 -0.584 c -0.144 -0.121 -0.327 -0.182 -0.549 -0.182 c -0.125 0 -0.236 0.016 -0.334 0.047 c -0.098 0.031 -0.184 0.068 -0.258 0.111 c -0.07 0.039 -0.131 0.08 -0.182 0.123 c -0.051 0.043 -0.088 0.076 -0.111 0.1 l -0.199 -0.264 c 0.023 -0.027 0.065 -0.066 0.123 -0.117 c 0.062 -0.055 0.139 -0.108 0.229 -0.158 c 0.094 -0.051 0.201 -0.094 0.322 -0.129 c 0.121 -0.039 0.256 -0.059 0.404 -0.059 z" style="fill:#353535;fill-opacity:1"/>
</svg>
